X: 27
T:Mixed Branle Cassandra
M:C|
R:Branle
N:Flat in final bar is editorial (originally shown in Orchesography as a
N:*sharp*
B:Thoinot Arbeau : Orchesographie, 1589
Z:Steve Mansfield March 2001
K:DDor
c2 cc | c2 c2 | d/e/f cd | A2 A2 ::
f2 dd | e2 cc | dd cd | A>B cc |
f2 f2 | G/A/_B GA | D2 D2 :|

